flaticon/technology/servers.svg

<svg xmlns="http://www.w3.org/2000/svg" width="32" height="32" viewBox="0 0 24 24">
    <path d="M4 15.554688C3.019531 15.554688 2.222656 16.351562 2.222656 17.332031 2.222656 18.3125 3.019531 19.109375 4 19.109375 4.980469 19.109375 5.777344 18.3125 5.777344 17.332031 5.777344 16.351562 4.980469 15.554688 4 15.554688zM4 18.222656C3.511719 18.222656 3.109375 17.824219 3.109375 17.332031 3.109375 16.84375 3.511719 16.445312 4 16.445312 4.488281 16.445312 4.890625 16.84375 4.890625 17.332031 4.890625 17.824219 4.488281 18.222656 4 18.222656zM22.222656 16.445312C22.222656 16.691406 22.023438 16.890625 21.777344 16.890625 21.53125 16.890625 21.332031 16.691406 21.332031 16.445312 21.332031 16.199219 21.53125 16 21.777344 16 22.023438 16 22.222656 16.199219 22.222656 16.445312zM20.445312 16.445312C20.445312 16.691406 20.246094 16.890625 20 16.890625 19.753906 16.890625 19.554688 16.691406 19.554688 16.445312 19.554688 16.199219 19.753906 16 20 16 20.246094 16 20.445312 16.199219 20.445312 16.445312zM21.332031 18.222656C21.332031 18.46875 21.132812 18.667969 20.890625 18.667969 20.644531 18.667969 20.445312 18.46875 20.445312 18.222656 20.445312 17.976562 20.644531 17.777344 20.890625 17.777344 21.132812 17.777344 21.332031 17.976562 21.332031 18.222656zM19.554688 18.222656C19.554688 18.46875 19.355469 18.667969 19.109375 18.667969 18.867188 18.667969 18.667969 18.46875 18.667969 18.222656 18.667969 17.976562 18.867188 17.777344 19.109375 17.777344 19.355469 17.777344 19.554688 17.976562 19.554688 18.222656zM18.667969 16.445312C18.667969 16.691406 18.46875 16.890625 18.222656 16.890625 17.976562 16.890625 17.777344 16.691406 17.777344 16.445312 17.777344 16.199219 17.976562 16 18.222656 16 18.46875 16 18.667969 16.199219 18.667969 16.445312zM17.777344 18.222656C17.777344 18.46875 17.578125 18.667969 17.332031 18.667969 17.085938 18.667969 16.890625 18.46875 16.890625 18.222656 16.890625 17.976562 17.085938 17.777344 17.332031 17.777344 17.578125 17.777344 17.777344 17.976562 17.777344 18.222656zM16.890625 16.445312C16.890625 16.691406 16.691406 16.890625 16.445312 16.890625 16.199219 16.890625 16 16.691406 16 16.445312 16 16.199219 16.199219 16 16.445312 16 16.691406 16 16.890625 16.199219 16.890625 16.445312zM16 18.222656C16 18.46875 15.800781 18.667969 15.554688 18.667969 15.308594 18.667969 15.109375 18.46875 15.109375 18.222656 15.109375 17.976562 15.308594 17.777344 15.554688 17.777344 15.800781 17.777344 16 17.976562 16 18.222656zM15.109375 16.445312C15.109375 16.691406 14.914062 16.890625 14.667969 16.890625 14.421875 16.890625 14.222656 16.691406 14.222656 16.445312 14.222656 16.199219 14.421875 16 14.667969 16 14.914062 16 15.109375 16.199219 15.109375 16.445312zM14.222656 18.222656C14.222656 18.46875 14.023438 18.667969 13.777344 18.667969 13.53125 18.667969 13.332031 18.46875 13.332031 18.222656 13.332031 17.976562 13.53125 17.777344 13.777344 17.777344 14.023438 17.777344 14.222656 17.976562 14.222656 18.222656zM22.222656 10.222656C22.222656 10.46875 22.023438 10.667969 21.777344 10.667969 21.53125 10.667969 21.332031 10.46875 21.332031 10.222656 21.332031 9.976562 21.53125 9.777344 21.777344 9.777344 22.023438 9.777344 22.222656 9.976562 22.222656 10.222656zM20.445312 10.222656C20.445312 10.46875 20.246094 10.667969 20 10.667969 19.753906 10.667969 19.554688 10.46875 19.554688 10.222656 19.554688 9.976562 19.753906 9.777344 20 9.777344 20.246094 9.777344 20.445312 9.976562 20.445312 10.222656zM21.332031 12C21.332031 12.246094 21.132812 12.445312 20.890625 12.445312 20.644531 12.445312 20.445312 12.246094 20.445312 12 20.445312 11.753906 20.644531 11.554688 20.890625 11.554688 21.132812 11.554688 21.332031 11.753906 21.332031 12zM19.554688 12C19.554688 12.246094 19.355469 12.445312 19.109375 12.445312 18.867188 12.445312 18.667969 12.246094 18.667969 12 18.667969 11.753906 18.867188 11.554688 19.109375 11.554688 19.355469 11.554688 19.554688 11.753906 19.554688 12zM18.667969 10.222656C18.667969 10.46875 18.46875 10.667969 18.222656 10.667969 17.976562 10.667969 17.777344 10.46875 17.777344 10.222656 17.777344 9.976562 17.976562 9.777344 18.222656 9.777344 18.46875 9.777344 18.667969 9.976562 18.667969 10.222656zM17.777344 12C17.777344 12.246094 17.578125 12.445312 17.332031 12.445312 17.085938 12.445312 16.890625 12.246094 16.890625 12 16.890625 11.753906 17.085938 11.554688 17.332031 11.554688 17.578125 11.554688 17.777344 11.753906 17.777344 12zM16.890625 10.222656C16.890625 10.46875 16.691406 10.667969 16.445312 10.667969 16.199219 10.667969 16 10.46875 16 10.222656 16 9.976562 16.199219 9.777344 16.445312 9.777344 16.691406 9.777344 16.890625 9.976562 16.890625 10.222656zM16 12C16 12.246094 15.800781 12.445312 15.554688 12.445312 15.308594 12.445312 15.109375 12.246094 15.109375 12 15.109375 11.753906 15.308594 11.554688 15.554688 11.554688 15.800781 11.554688 16 11.753906 16 12zM15.109375 10.222656C15.109375 10.46875 14.914062 10.667969 14.667969 10.667969 14.421875 10.667969 14.222656 10.46875 14.222656 10.222656 14.222656 9.976562 14.421875 9.777344 14.667969 9.777344 14.914062 9.777344 15.109375 9.976562 15.109375 10.222656zM14.222656 12C14.222656 12.246094 14.023438 12.445312 13.777344 12.445312 13.53125 12.445312 13.332031 12.246094 13.332031 12 13.332031 11.753906 13.53125 11.554688 13.777344 11.554688 14.023438 11.554688 14.222656 11.753906 14.222656 12zM22.222656 4C22.222656 4.246094 22.023438 4.445312 21.777344 4.445312 21.53125 4.445312 21.332031 4.246094 21.332031 4 21.332031 3.753906 21.53125 3.554688 21.777344 3.554688 22.023438 3.554688 22.222656 3.753906 22.222656 4zM20.445312 4C20.445312 4.246094 20.246094 4.445312 20 4.445312 19.753906 4.445312 19.554688 4.246094 19.554688 4 19.554688 3.753906 19.753906 3.554688 20 3.554688 20.246094 3.554688 20.445312 3.753906 20.445312 4zM21.332031 5.777344C21.332031 6.023438 21.132812 6.222656 20.890625 6.222656 20.644531 6.222656 20.445312 6.023438 20.445312 5.777344 20.445312 5.53125 20.644531 5.332031 20.890625 5.332031 21.132812 5.332031 21.332031 5.53125 21.332031 5.777344zM19.554688 5.777344C19.554688 6.023438 19.355469 6.222656 19.109375 6.222656 18.867188 6.222656 18.667969 6.023438 18.667969 5.777344 18.667969 5.53125 18.867188 5.332031 19.109375 5.332031 19.355469 5.332031 19.554688 5.53125 19.554688 5.777344zM18.667969 4C18.667969 4.246094 18.46875 4.445312 18.222656 4.445312 17.976562 4.445312 17.777344 4.246094 17.777344 4 17.777344 3.753906 17.976562 3.554688 18.222656 3.554688 18.46875 3.554688 18.667969 3.753906 18.667969 4zM17.777344 5.777344C17.777344 6.023438 17.578125 6.222656 17.332031 6.222656 17.085938 6.222656 16.890625 6.023438 16.890625 5.777344 16.890625 5.53125 17.085938 5.332031 17.332031 5.332031 17.578125 5.332031 17.777344 5.53125 17.777344 5.777344zM16.890625 4C16.890625 4.246094 16.691406 4.445312 16.445312 4.445312 16.199219 4.445312 16 4.246094 16 4 16 3.753906 16.199219 3.554688 16.445312 3.554688 16.691406 3.554688 16.890625 3.753906 16.890625 4zM16 5.777344C16 6.023438 15.800781 6.222656 15.554688 6.222656 15.308594 6.222656 15.109375 6.023438 15.109375 5.777344 15.109375 5.53125 15.308594 5.332031 15.554688 5.332031 15.800781 5.332031 16 5.53125 16 5.777344zM15.109375 4C15.109375 4.246094 14.914062 4.445312 14.667969 4.445312 14.421875 4.445312 14.222656 4.246094 14.222656 4 14.222656 3.753906 14.421875 3.554688 14.667969 3.554688 14.914062 3.554688 15.109375 3.753906 15.109375 4zM14.222656 5.777344C14.222656 6.023438 14.023438 6.222656 13.777344 6.222656 13.53125 6.222656 13.332031 6.023438 13.332031 5.777344 13.332031 5.53125 13.53125 5.332031 13.777344 5.332031 14.023438 5.332031 14.222656 5.53125 14.222656 5.777344zM4 12.890625C4.980469 12.890625 5.777344 12.089844 5.777344 11.109375 5.777344 10.128906 4.980469 9.332031 4 9.332031 3.019531 9.332031 2.222656 10.128906 2.222656 11.109375 2.222656 12.089844 3.019531 12.890625 4 12.890625zM4 10.222656C4.488281 10.222656 4.890625 10.621094 4.890625 11.109375 4.890625 11.601562 4.488281 12 4 12 3.511719 12 3.109375 11.601562 3.109375 11.109375 3.109375 10.621094 3.511719 10.222656 4 10.222656zM4 10.222656"/>
    <path d="M 24 2.402344 C 24 1.8125 23.519531 1.332031 22.929688 1.332031 L 1.070312 1.332031 C 0.480469 1.332031 0 1.8125 0 2.402344 L 0 7.375 C 0 7.609375 0.078125 7.824219 0.207031 8 C 0.078125 8.175781 0 8.390625 0 8.625 L 0 13.597656 C 0 13.832031 0.078125 14.046875 0.207031 14.222656 C 0.078125 14.398438 0 14.613281 0 14.847656 L 0 19.820312 C 0 20.410156 0.480469 20.890625 1.070312 20.890625 L 1.332031 20.890625 C 1.332031 21.871094 2.128906 22.667969 3.109375 22.667969 C 4.089844 22.667969 4.890625 21.871094 4.890625 20.890625 L 19.109375 20.890625 C 19.109375 21.871094 19.910156 22.667969 20.890625 22.667969 C 21.871094 22.667969 22.667969 21.871094 22.667969 20.890625 L 22.929688 20.890625 C 23.519531 20.890625 24 20.410156 24 19.820312 L 24 14.847656 C 24 14.613281 23.921875 14.398438 23.792969 14.222656 C 23.921875 14.046875 24 13.832031 24 13.597656 L 24 8.625 C 24 8.390625 23.921875 8.175781 23.792969 8 C 23.921875 7.824219 24 7.609375 24 7.375 Z M 0.890625 2.402344 C 0.890625 2.304688 0.96875 2.222656 1.070312 2.222656 L 22.929688 2.222656 C 23.03125 2.222656 23.109375 2.304688 23.109375 2.402344 L 23.109375 7.375 C 23.109375 7.472656 23.03125 7.554688 22.929688 7.554688 L 1.070312 7.554688 C 0.96875 7.554688 0.890625 7.472656 0.890625 7.375 Z M 23.109375 8.625 L 23.109375 13.597656 C 23.109375 13.695312 23.03125 13.777344 22.929688 13.777344 L 1.070312 13.777344 C 0.96875 13.777344 0.890625 13.695312 0.890625 13.597656 L 0.890625 8.625 C 0.890625 8.527344 0.96875 8.445312 1.070312 8.445312 L 22.929688 8.445312 C 23.03125 8.445312 23.109375 8.527344 23.109375 8.625 Z M 3.109375 21.777344 C 2.621094 21.777344 2.222656 21.378906 2.222656 20.890625 L 4 20.890625 C 4 21.378906 3.601562 21.777344 3.109375 21.777344 Z M 20.890625 21.777344 C 20.398438 21.777344 20 21.378906 20 20.890625 L 21.777344 20.890625 C 21.777344 21.378906 21.378906 21.777344 20.890625 21.777344 Z M 23.109375 19.820312 C 23.109375 19.917969 23.03125 20 22.929688 20 L 1.070312 20 C 0.96875 20 0.890625 19.917969 0.890625 19.820312 L 0.890625 14.847656 C 0.890625 14.746094 0.96875 14.667969 1.070312 14.667969 L 22.929688 14.667969 C 23.03125 14.667969 23.109375 14.746094 23.109375 14.847656 Z M 23.109375 19.820312"/>
    <path d="M 4 6.667969 C 4.980469 6.667969 5.777344 5.871094 5.777344 4.890625 C 5.777344 3.910156 4.980469 3.109375 4 3.109375 C 3.019531 3.109375 2.222656 3.910156 2.222656 4.890625 C 2.222656 5.871094 3.019531 6.667969 4 6.667969 Z M 4 4 C 4.488281 4 4.890625 4.398438 4.890625 4.890625 C 4.890625 5.378906 4.488281 5.777344 4 5.777344 C 3.511719 5.777344 3.109375 5.378906 3.109375 4.890625 C 3.109375 4.398438 3.511719 4 4 4 Z M 4 4"/>
</svg>

<svg xmlns="http://www.w3.org/2000/svg" width="32" height="32" viewBox="0 0 24 24">
    <path d="M4 15.555c-.98 0-1.777.797-1.777 1.777 0 .98.797 1.777 1.777 1.777.98 0 1.777-.797 1.777-1.777 0-.98-.797-1.777-1.777-1.777zm0 2.668a.893.893 0 0 1-.89-.891c0-.488.402-.887.89-.887s.89.399.89.887c0 .492-.402.89-.89.89zm0 0M22.223 16.445a.445.445 0 1 1-.89 0 .445.445 0 0 1 .89 0zm0 0M20.445 16.445a.445.445 0 1 1-.89 0 .445.445 0 0 1 .89 0zm0 0M21.332 18.223a.444.444 0 1 1-.441-.446c.242 0 .441.2.441.446zm0 0M19.555 18.223a.444.444 0 0 1-.887 0 .444.444 0 1 1 .887 0zm0 0M18.668 16.445a.445.445 0 1 1-.89 0 .445.445 0 0 1 .89 0zm0 0M17.777 18.223c0 .246-.199.445-.445.445a.442.442 0 0 1-.441-.445c0-.246.195-.446.441-.446s.445.2.445.446zm0 0M16.89 16.445a.445.445 0 1 1-.89 0 .445.445 0 0 1 .89 0zm0 0M16 18.223a.445.445 0 1 1-.89 0 .445.445 0 0 1 .89 0zm0 0M15.11 16.445a.442.442 0 0 1-.442.446.445.445 0 1 1 0-.891c.246 0 .441.2.441.445zm0 0M14.223 18.223a.445.445 0 1 1-.89 0 .445.445 0 0 1 .89 0zm0 0M22.223 10.223a.445.445 0 1 1-.89 0 .445.445 0 0 1 .89 0zm0 0M20.445 10.223a.445.445 0 1 1-.89 0 .445.445 0 0 1 .89 0zm0 0M21.332 12a.444.444 0 1 1-.441-.445c.242 0 .441.199.441.445zm0 0M19.555 12a.444.444 0 0 1-.887 0 .444.444 0 1 1 .887 0zm0 0M18.668 10.223a.445.445 0 1 1-.89 0 .445.445 0 0 1 .89 0zm0 0M17.777 12c0 .246-.199.445-.445.445a.442.442 0 0 1-.441-.445c0-.246.195-.445.441-.445s.445.199.445.445zm0 0M16.89 10.223a.445.445 0 1 1-.89 0 .445.445 0 0 1 .89 0zm0 0M16 12a.445.445 0 1 1-.89 0 .445.445 0 0 1 .89 0zm0 0M15.11 10.223a.442.442 0 0 1-.442.445.445.445 0 1 1 0-.89c.246 0 .441.199.441.445zm0 0M14.223 12a.445.445 0 1 1-.89 0 .445.445 0 0 1 .89 0zm0 0M22.223 4a.445.445 0 1 1-.89 0 .445.445 0 0 1 .89 0zm0 0M20.445 4a.445.445 0 1 1-.89 0 .445.445 0 0 1 .89 0zm0 0M21.332 5.777a.444.444 0 1 1-.441-.445c.242 0 .441.2.441.445zm0 0M19.555 5.777a.444.444 0 0 1-.887 0 .444.444 0 1 1 .887 0zm0 0M18.668 4a.445.445 0 1 1-.89 0 .445.445 0 0 1 .89 0zm0 0M17.777 5.777c0 .246-.199.446-.445.446a.442.442 0 0 1-.441-.446c0-.246.195-.445.441-.445s.445.2.445.445zm0 0M16.89 4A.445.445 0 1 1 16 4a.445.445 0 0 1 .89 0zm0 0M16 5.777a.445.445 0 1 1-.89 0 .445.445 0 0 1 .89 0zm0 0M15.11 4a.442.442 0 0 1-.442.445.445.445 0 1 1 0-.89c.246 0 .441.199.441.445zm0 0M14.223 5.777a.445.445 0 1 1-.89 0 .445.445 0 0 1 .89 0zm0 0M4 12.89a1.779 1.779 0 0 0 0-3.559 1.779 1.779 0 0 0 0 3.56zm0-2.667c.488 0 .89.398.89.886 0 .493-.402.891-.89.891a.893.893 0 0 1-.89-.89c0-.489.402-.887.89-.887zm0 0"/>
    <path d="M24 2.402c0-.59-.48-1.07-1.07-1.07H1.07c-.59 0-1.07.48-1.07 1.07v4.973c0 .234.078.45.207.625-.129.176-.207.39-.207.625v4.973c0 .234.078.449.207.625-.129.175-.207.39-.207.625v4.972c0 .59.48 1.07 1.07 1.07h.262a1.779 1.779 0 0 0 3.559 0h14.218a1.779 1.779 0 1 0 3.559 0h.262c.59 0 1.07-.48 1.07-1.07v-4.972c0-.235-.078-.45-.207-.625.129-.176.207-.391.207-.625V8.625c0-.234-.078-.45-.207-.625.129-.176.207-.39.207-.625zm-23.11 0a.18.18 0 0 1 .18-.18h21.86a.18.18 0 0 1 .18.18v4.973a.18.18 0 0 1-.18.18H1.07a.18.18 0 0 1-.18-.18zm22.22 6.223v4.973a.18.18 0 0 1-.18.18H1.07a.18.18 0 0 1-.18-.18V8.625a.18.18 0 0 1 .18-.18h21.86a.18.18 0 0 1 .18.18zm-20 13.152a.889.889 0 0 1-.887-.886H4a.89.89 0 0 1-.89.886zm17.78 0a.89.89 0 0 1-.89-.886h1.777a.889.889 0 0 1-.886.886zm2.22-1.957a.18.18 0 0 1-.18.18H1.07a.18.18 0 0 1-.18-.18v-4.972c0-.102.079-.18.18-.18h21.86c.101 0 .18.078.18.18zm0 0"/>
    <path d="M4 6.668a1.779 1.779 0 0 0 0-3.559 1.779 1.779 0 1 0 0 3.559zM4 4c.488 0 .89.398.89.89a.892.892 0 0 1-.89.887.892.892 0 0 1-.89-.886C3.11 4.398 3.511 4 4 4zm0 0"/>
</svg>
